src/assets/images/clock.svg

<svg fill="none" height="20" viewBox="0 0 20 20" width="20" xmlns="http://www.w3.org/2000/svg"><path d="m10 18c4.4 0 8-3.6 8-8s-3.6-8-8-8-8 3.6-8 8 3.6 8 8 8zm0-18c5.5 0 10 4.5 10 10s-4.5 10-10 10-10-4.5-10-10 4.5-10 10-10zm.5 5v5.2l-2.7 4.8-1.3-.8 2.5-4.4v-4.8z" fill="#b6b6b6"/></svg>

<svg width="20" height="20" viewBox="0 0 20 20" fill="none" xmlns="http://www.w3.org/2000/svg">
<path d="M10 18C14.4 18 18 14.4 18 10C18 5.6 14.4 2 10 2C5.6 2 2 5.6 2 10C2 14.4 5.6 18 10 18ZM10 0C15.5 0 20 4.5 20 10C20 15.5 15.5 20 10 20C4.5 20 0 15.5 0 10C0 4.5 4.5 0 10 0ZM10.5 5V10.2L7.8 15L6.5 14.2L9 9.8V5H10.5Z" fill="#B6B6B6"/>
</svg>
